X:1
T:Title
%%score 1 { 2 | 3 }
L:1/8
Q:1/4=93
M:4/4
K:F
V:1 treble nm="Grand Piano, Soprano"
V:2 bass nm="Choir Pad, Bass"
V:3 bass 
V:1
 (3C[CF][FA] [Fc]2 [Fc]>[Fd] [Fc]2 | F>[FG] [FA]>[FB] [FA]>[F_A] [F=A]2 | (3[Ac][GB][FA] [EG]6 | %3
w: By~George~E.~Myers * * * * * *|||
 (3[EG][DF][EG] [FA]6 | (3C[CF][FA] [Fc]2 [Fc]>[Fd] [Fc]2 | F>[FG] [FA]>[FB] [FA]>[F_A] [F=A]2 | %6
w: |||
 (3[Ac][GB][FA] [EG]6 | (3[EG][FA][EG] F2 D2 C2 | (3[FA][GB][Ac] [Bd]6 | (3[df][ce][Bd] [Ac]6 | %10
w: ||||
 (3[FA][FA][FA] [EG]2 [Ec]2 [Ge][Fd] | [Ec][D=B] [Ec]6 | (3C[CF][CG] [FA]2 [FA]>[GB] [Ac]2 | %13
w: |||
 (3[FA][FA][FA] [FB]2 [FB]>[Fc] [Fd]2 | [Ff]>[Fd] [Fc]2 FB [FA]2 | [EG]2 [CF]6- | [CF]2 z2 z4 |] %17
w: ||||
V:2
 (3A,A,C A,2 A,>B, A,2 | A,>B,[K:treble] C>D C>=B, C2 | z4 (3CCC C2 | z4 (3CCC C2 | %4
 (3A,[K:bass]A,C A,2 A,>B, A,2 | A,>B,[K:treble] C>D C>=B, C2 | z4 (3EEE E2 | %7
 (3B,[K:bass]CB, A,2 B,2 A,2 | z4[K:treble] (3FFF F2 | z4 (3FFF F2 | (3CCC C2 C2 C=B, | CD C6 | %12
 (3A,A,B, C2 C>[K:treble]C F2 | (3CCC[K:bass] B,2 B,>A, B,2 | D>B,[K:treble] C2 CD C2 | B,2 A,6- | %16
 A,2 z2 z4 |] %17
V:3
 (3F,F,F, F,2 F,>F, F,2 | F,>F, F,>F, F,>F, F,2 | z4 (3C,C,C, C,2 | z4 (3F,F,F, F,2 | %4
 (3F,F,F, F,2 F,>F, F,2 | F,>F, F,>F, F,>F, F,2 | z4 (3C,C,C, C,2 | (3C,C,C, F,6 | %8
 z4 (3B,B,B, B,2 | z4 (3F,F,F, F,2 | (3F,F,F, G,2 G,2 G,2 | G,2 C,6 | (3F,F,F, F,2 F,>F, F,2 | %13
 (3E,E,E, D,2 D,>C, B,,2 | B,2 A,2 A,B, z2 | C,2 F,6- | F,2 z2 z4 |] %17

